X:1
T:Title
%%score [ ( 1 2 ) ( 3 4 ) ]
L:1/8
Q:1/4=66
M:4/4
K:Dmin
V:1 treble-8 nm="MusicXML Part"
V:2 treble-8 
V:3 bass nm="MusicXML Part"
V:4 bass 
V:1
 z8 | z8 | z4!p! d3 d | a2 g2 (g2 fe | f4) g4 | (eg) (fe) (d4- | d)^c/=B/ c2 !breath!d!mp!AAA | %7
w: ||A- mo-|ro- sa spi- * *|* na|a- * mo- * ro-|* * * * sa.- * * *|
 f2 e2 dded | =c2 c2!<(! g2 fe!<)! |!mf!!>(! d4!>)! !breath!^c2 AA | d2 d2 ee!<(!BB!<)! | %11
w: ||||
!p!!>(! B2!>)! A2 z GAB | c2 d2 (_e/d/)f/e/ (d/c/)e/d/ | (c/B/)d/_e/ (f/e/d/c/) (g/f/)e/d/ fe | %14
w: * * ed e- ro|la ma- ri- * * * na * * *|la * * * ma- * * * ri- * * * * *|
 !breath!d2!<(! _ee c2 d2!<)! | ddff!>(! f2!>)! =e2 ||"^dolce"!p! z2 AA d4 | d6 d2 | d4 ^c4 | %19
w: na * * * *||Con le cal-|me do-|ra- te|
!mf! z AAA e2 e2 | z2 e2 g2 ^fe | x8 |!mf! =B2 B2 B2 AA |"^diminuendo molto" AGGG G2 ^F2 | %24
w: e gli\_o- riz- zon- ti-|lon- ta- ni- il||fon- do do- ve non|oc- chio può\_ar- ri- va- re|
 ^F2 E2 (EF)DD |"^misterioso"!pp! ^C2 C4 x2 |!mf! ^c2 cc (=c=B)AA | _B4 z4 | z4 z!p!!<(! GAB | %29
w: e non può _ lo scan-|da- glio|||u- na co-|
 c2!<)! d_e!p!!<(! B2 g2- | g!<)!a ^f2 g4 | g2 g2 g2 g2- | g2 f_e (d2"^dim." c)B | A2 d2 A2 A2 | %34
w: si- na da nul- la|a- * ve- va|a- ve- va u-|* na co- si * *|na u- na co-|
 A2 G2 z4 |!<(! z4!<)!!<(! z!mp!!<(! ddd!<)!!<)! | _e4 (eg) (fe) | d2 d2!mf! g2 f_e | d4 d2 c2 | %39
w: si- na|u- na co-|si- na * da *|nul- la u- na co-|si- na da|
"^diminuendo" B2 BB (B2 A2) |!p! !breath!A2 AA (f2 =e)d |"^con ansia" d z ^c z d z d z | %42
w: |||
!f! z"^molto espressivo"!<(! GAB!<)! ((A2 a2-) | a2) gf (e4- | %44
w: ed ar- ri- de- *|* va l'az- zur-|
"^diminuendo molto e rallentando" e2 d)d (d^c/)=B/ c2 |!p! d8- | d4- d(e/d/) cB | %47
w: * ra im- men- * * si-|tà,|_ _ im- * men- si-|
!ppp! !fermata!A8 |] %48
w: tà.|
V:2
 x8 | x8 | z8 | z4 A3 A | d2 c2 (BA) GA | B4 A4- | A4 z AAA | d2 ^c2 ddBB | c2 c2 G2 GG | %9
w: |||A- mo-|ro- sa spi- * * *|* na|* Co- me\_ho go-|du- to tra la ve- glia\_e\_il|son- no que- sta mat-|
 (A2 F)G A2 AA | (AB) (AG) BAGG | F2 F2 z G^FG | (GA) B2 (c/B/)d/c/ (B/A/)c/B/ | %13
w: ti- * * na! E- ro\_un|uo- * mo * uo- mo e- ro\_an-|co- ra ed e- ro|la * ma- ri- * * * na * * *|
 (A/G/)B/c/ (d/c/)B/A/ (_e/d/)c/B/ dc | B2 cc A2 A2 | =BBBB c2 c2 || x2 AA A4 | (=B2 A2) G4 | %18
w: la * * * ma- * * * ri- * * * * *|na la ma- ri- na|li- be- ra\_e\_in- fi- ni- ta.|Con le cal-|me * do-|
 =B4 A4 | x AAA G2 GG | (c3 d) e2 ^fe | (eA d2) d2 c2 | x8 | x8 | x8 | ^C2 C4 z2 | A2 AA (c=B)AA | %27
w: ra- te|e gli\_o- riz- zon- ti lon-|ta- * * ni il|ma- * * re. Nel||||da- glio|u- na pie- truz- * za per|
 G4 z4 | z8 | z4 z GAB | c2 d_e B2 d2 | _e2 c2 e4 | d4 G4 | A8- | A2 G2 z4 | z!mp! ^FFF A2 G2 | %36
w: me||u- na co-|si- na- da nul- laa-|ve- va u-|na co-|si-|* na|u- na co- si- na|
 c4 (c4- | c)A B2 z4 | B2 AG ^F2 FF | G2 GG (G2 =F2) | A2 AA A4 | A z A z A z G z | z GFG (F2 f2) | %43
w: da nul-|* * la|u- na co- si- na da|nul- la a- ve- *|va. Per lei so-|la fre- me- va|ed ar- ri- de- *|
 d2 d2 d4 | A2 AA A2 A2 | AA =c_B AGFG | A2 A2 A2 A2 | ^F8 |] %48
w: va l'az- zur-|* ra im- men- si-|tà l'az- zur- * ra im- men- si-|tà, im- men- si-|tà.|
V:3
 z4!p! x4 | z4!p! A,3 A, | D2 C2 (C2 B,)A, | A,6 z2 | D,4 (D,2 E,)F, | (G,4 F,)A, G,F, | %6
w: |A- mo-|ro- sa spi- * *|na|a- mo- * *|ro- * * * *|
 E,4 !breath!D,!mp!A,A,A, | A,2 A,2 A,A,G,G, | G,2 G,2!<(! D,2 D,D,!<)! | %9
w: * sa * * *|||
!mf!!>(! D,4!>)! !breath!E,2 E,E, | D,2 D,2 E,E,!<(!E,E,!<)! |!p!!>(! D,2!>)! D,2 z D,D,D, | %12
w: ||* * ed e- ro|
 _E,2 F,2 (G,/F,/)A,/G,/ (F,/E,/)G,/F,/ | %13
w: la ma- ri- * * * na * * *|
 (_E,/D,/)F,/G,/ (A,/G,/F,/E,/ (B,/)A,/G,/F,/ A,/D,/E,/F,/) | !breath!G,2!<(! G,G, G,2 ^F,2!<)! | %15
w: la * * * ma- * * * ri- * * * * * * *|na * * * *|
 G,G,G,G,!>(! =F,2!>)! =E,2 ||!p! z2 A,A, D,4 | ^F,4 G,4 | (E,2!<)!!<(!!>(! ^F,4)!>)! E,2 | %19
w: |Con le cal-|me do-|ra- * te-|
 z4!mf! z E,E,E, | G,2 G,G, =B,2 B,B, | (A,2 ^F,)G, A,2 G,2 |!mf! ^F,2 F,2 E,2 E,E, | %23
w: ||||
 D,D,D,D, C,2 C,2 | =B,,2 B,,2 B,,2 B,,B,, |!pp! (^C,=B,,) C,4 z2 |!mf! ^F,2 F,F, G,2 ^F,F, | %27
w: ||||
 D,4 z4 | z8 | z8 | z4 z!mf!!<(! G,A,B,!<)! | C2 D_E (B,G,)A,B, | A,4 _E,4 | F,4- F,D, _E,F, | %34
w: |||u- na co-|si- na da nul- * * *|la a-|ve- * * * *|
 D,4!<)!!<(! z!mp! _G,=G,G, | A,4 D,3 D, | (G,CB,A,) G,4 | G,4 z4 |!>(! z4!>)!!mp! D,2 D,D, | %39
w: va u- na co-|si- na da|nul- * * * *|la||
 _E,2 E,E, D,4 |!p! !breath!=E,2 E,E, D,4 | E, z E, z D, z D, z |!f! z!<(! D,D,D,!<)! D,2 (DC) | %43
w: ||||
 B,2 B,2 (B,4 | F,2) F,F, E,2 E,2 |!p! D,8- | D,E, (F,G, A,2) A,2 |"^lunga"!ppp! !fermata!D,8 |] %48
w: |||* im- men- * * si-|tà.|
V:4
 x4 D,3 D, | A,2 G,2 (G,2 F,E,) | F,4 G,4 | ^C,4 D,4- | D,4 G,,4- | G,,4 A,,4- | A,,4 z A,A,A, | %7
w: A- mo-|ro- sa spi- * *|* na|a- mo-|* ro-|* sa|* Co- me\_ho go-|
 D,2 E,2 F,F,E,E, | (E,D,) (E,C,) B,,2 B,,B,, | B,,4 A,,2 A,,A,, | B,,2 B,,2 G,,G,,G,,G,, | %11
w: du- to tra la ve- glia\_e\_il|son- * no * que- sta mat-|ti- na! E- ro\_un|uo- mo uo- mo e- ro\_an-|
 D,2 D,C, B,,2 (A,,G,,) | G,,4 G,,4 | G,,8 | G,,2 C,C, _E,2 D,2 | G,,G,,G,,G,, A,,2 A,,2 || %16
w: co- ra ed e- ro- *|la- ma-|ri-|na la ma- ri- na|li- be- ra\_e\_in- fi- ni- ta.|
 x2 A,A, D,4 | =B,,4 (B,,2 A,,2) | G,,4 A,,4 | x5 E,E,E, | E,2 E,E, G,2 G,G, | ^F,4 F,2 E,2 | %22
w: Con le cal-|me do- *|ra- te-|e gli\_o- riz-|zon- ti lon- ta- ni il|ma- re. Nel|
 D,2 D,2 C,2 C,C, | =B,,B,,B,,B,, A,,2 A,,2 | G,,2 G,,2 G,,2 G,,G,, | ^F,,2 F,,4 x2 | %26
w: fon- do do- ve non|oc- chio può\_ar- ri- va- re|e non può lo scan-|da- glio|
 ^F,2 F,F, E,2 D,D, | G,,4 z!p!!<(! G,,A,,!<)!_B,, | C,2 D,_E, (B,,2 G,2-) | %29
w: u- na pie- truz- za per|me u- na co-|si- na da nul- *|
 G,2 ^F,2"^cresc." G,2 G,,2 | D,4 _E,4 | C,4 C,4 | D,4 D,4 | D,2 (C,B,,) A,,4 | %34
w: * la a- ve|va u-|na co-|si- na|a- ve- * va|
 z!mp! B,,B,,B,, C,2 D,_E, | D,3 D, B,,4 | A,,3 A,, A,,4 | G,,4 z4 | z4 D,2 D,D, | %39
w: u- na co- si- na da|nul- la\_a- ve-|va a- ve-|va-|da nul- la|
 _E,2 E,E, (B,,C,) D,2 | D,2 ^C,C, D,4 | A,, z A,, z B,, z B,, z | z B,,A,,G,, (D,2 A,2) | %43
w: nul- la a- ve- * *|va. Per lei so-|la fre- me- va-|ed ar- ri- de- *|
 G,2 (G,F,) (E,G,F,E, | A,,2) A,,A,, A,,2 A,,2 | A,,8- | A,,8- | A,,8 |] %48
w: va l'az- * zur- * * *|* ra im- men- si-|tà|_||

